src/backspace.svg

<?xml version="1.0" encoding="UTF-8" standalone="no"?>
<svg width="20px" height="20px" viewBox="0 0 20 20" version="1.1" xmlns="http://www.w3.org/2000/svg" xmlns:xlink="http://www.w3.org/1999/xlink">
    <!-- Generator: Sketch 3.7.2 (28276) - http://www.bohemiancoding.com/sketch -->
    <title>backspace</title>
    <desc>Created with Sketch.</desc>
    <defs></defs>
    <g id="Page-1" stroke="none" stroke-width="1" fill="none" fill-rule="evenodd">
        <g id="backspace" fill="#000000">
            <path d="M14.4142136,10 L16.5355339,7.87867966 L15.1213203,6.46446609 L13,8.58578644 L10.8786797,6.46446609 L9.46446609,7.87867966 L11.5857864,10 L9.46446609,12.1213203 L10.8786797,13.5355339 L13,11.4142136 L15.1213203,13.5355339 L16.5355339,12.1213203 L14.4142136,10 Z M0,10 L7,3 L20,3 L20,17 L7,17 L0,10 Z" id="Combined-Shape"></path>
        </g>
    </g>
</svg>

<svg xmlns="http://www.w3.org/2000/svg" viewBox="0 0 20 20"><path d="M0 10l7-7h13v14H7l-7-7zm14.41 0l2.13-2.12-1.42-1.42L13 8.6l-2.12-2.13-1.42 1.42L11.6 10l-2.13 2.12 1.42 1.42L13 11.4l2.12 2.13 1.42-1.42L14.4 10z"/></svg>
